X:255
T:Crusaders,The. JaW.255
M:2/4
Q:50
L:1/8
S:James Winder Ms, Lancashire, 1835-41
R:.March
O:England
A:Wyresdale,Lancashire
Z:vmp.Chris Partington, Aug 2004
K:C
e/d/|:cGG e/d/|cGG (g/f/)|ec ce|d/c/B/c/ d e/d/|!
cGG e/d/| cGG g/f/| ec dB|c2z:|!
|:B/c/|dd/e/ fd|ee/f/ gc|dd/e/ f/e/d/c/|Bcd B/c/|!
dd/e/ fd|ee/^f/ ge|d>e d/B/c/A/|”DC”GGAB:|

